images/icons/PBS-component_video_line.svg

<?xml version="1.0" encoding="UTF-8" standalone="no"?>
<svg width="256px" height="256px" viewBox="0 0 256 256" version="1.1" xmlns="http://www.w3.org/2000/svg" xmlns:xlink="http://www.w3.org/1999/xlink">
    <!-- Generator: Sketch 39.1 (31720) - http://www.bohemiancoding.com/sketch -->
    <title>PBS-component_video_line</title>
    <desc>Created with Sketch.</desc>
    <defs></defs>
    <g id="Page-1" stroke="none" stroke-width="1" fill="none" fill-rule="evenodd">
        <g id="PBS-component_video_line" fill="#222222">
            <path d="M165.063391,129.994002 C166.975006,128.892745 166.979778,127.110004 165.063391,126.005998 L157.243841,121.501257 L111.243841,95.0012574 L103.465269,90.5201237 C101.551454,89.4175997 100,90.3144848 100,92.5229884 L100,101.5 L100,154.5 L100,163.477012 C100,165.685687 101.551603,166.582314 103.465269,165.479876 L111.243841,160.998743 L157.243841,134.498743 L165.063391,129.994002 Z M143.322219,129.815553 C145.245011,128.734487 145.238118,126.977858 143.322219,125.900669 L141.074195,124.636746 L117.710756,111.500948 L115.486476,110.250375 C113.560949,109.167771 112,110.081864 112,112.290587 L112,114.722313 L112,140.993908 L112,143.425634 C112,145.635016 113.560489,146.548708 115.486476,145.465846 L117.710756,144.215273 L141.074195,131.079475 L143.322219,129.815553 Z" id="Combined-Shape"></path>
            <path d="M227.000735,42 C228.104899,42 229,42.9047976 229,43.9911224 L229,212.008878 C229,213.108544 228.099398,214 227.000735,214 L28.999265,214 C27.8951014,214 27,213.095202 27,212.008878 L27,43.9911224 C27,42.8914559 27.9006023,42 28.999265,42 L227.000735,42 Z M214,57 L214,199 L42,199 L42,57 L214,57 Z" id="Combined-Shape"></path>
        </g>
    </g>
</svg>

<svg width="256" height="256" viewBox="0 0 256 256" xmlns="http://www.w3.org/2000/svg"><title>PBS-component_video_line</title><g fill="#222" fill-rule="evenodd"><path d="M165.063 129.994c1.912-1.101 1.917-2.884 0-3.988l-7.82-4.505-46-26.5-7.778-4.48c-1.914-1.103-3.465-.207-3.465 2.002V163.477c0 2.209 1.552 3.105 3.465 2.003l7.779-4.481 46-26.5 7.82-4.505zm-21.74-.178c1.922-1.082 1.915-2.838 0-3.915l-2.249-1.264-23.363-13.136-2.225-1.25c-1.925-1.083-3.486-.17-3.486 2.04V143.426c0 2.209 1.56 3.123 3.486 2.04l2.225-1.25 23.363-13.137 2.248-1.263z"/><path d="M227 42c1.105 0 2 .905 2 1.991V212.01c0 1.1-.9 1.991-2 1.991H29c-1.105 0-2-.905-2-1.991V43.99c0-1.1.9-1.991 2-1.991h198zm-13 15v142H42V57h172z"/></g></svg>
